static/img/kroki/24c9c6d518867176d3c1119653537f82.svg

<?xml version="1.0" encoding="us-ascii" standalone="no"?><svg xmlns="http://www.w3.org/2000/svg" xmlns:xlink="http://www.w3.org/1999/xlink" contentStyleType="text/css" height="352px" preserveAspectRatio="none" style="width:329px;height:352px;" version="1.1" viewBox="0 0 329 352" width="329px" zoomAndPan="magnify"><defs/><g><!--class aws_ec2_network_acl--><g id="elem_aws_ec2_network_acl"><rect codeLine="22" fill="#3D176E" height="39.7891" id="aws_ec2_network_acl" rx="2.5" ry="2.5" style="stroke:#000D19;stroke-width:0.5;" width="224" x="61.73" y="206.58"/><ellipse cx="76.73" cy="226.4745" fill="#ADD1B2" rx="11" ry="11" style="stroke:#181818;stroke-width:1.0;"/><path d="M79.6987,232.1152 Q79.1206,232.412 78.48,232.5527 Q77.8394,232.7089 77.1362,232.7089 Q74.6362,232.7089 73.3081,231.0683 Q71.9956,229.412 71.9956,226.287 Q71.9956,223.162 73.3081,221.5058 Q74.6362,219.8495 77.1362,219.8495 Q77.8394,219.8495 78.48,220.0058 Q79.1362,220.162 79.6987,220.4589 L79.6987,223.1777 Q79.0737,222.5995 78.48,222.3339 Q77.8862,222.0527 77.2612,222.0527 Q75.9175,222.0527 75.23,223.1308 Q74.5425,224.1933 74.5425,226.287 Q74.5425,228.3808 75.23,229.4589 Q75.9175,230.5214 77.2612,230.5214 Q77.8862,230.5214 78.48,230.2558 Q79.0737,229.9745 79.6987,229.3964 L79.6987,232.1152 Z " fill="#000000"/><text fill="#D9B8FF" font-family="Helvetica" font-size="17" lengthAdjust="spacing" textLength="182" x="95.73" y="232.3598">aws_ec2_network_acl</text></g><!--class aws_ec2_subnet--><g id="elem_aws_ec2_subnet"><rect codeLine="24" fill="#3D176E" height="39.7891" id="aws_ec2_subnet" rx="2.5" ry="2.5" style="stroke:#000D19;stroke-width:0.5;" width="179" x="84.23" y="306.37"/><ellipse cx="99.23" cy="326.2645" fill="#ADD1B2" rx="11" ry="11" style="stroke:#181818;stroke-width:1.0;"/><path d="M102.1987,331.9052 Q101.6206,332.202 100.98,332.3427 Q100.3394,332.4989 99.6362,332.4989 Q97.1362,332.4989 95.8081,330.8583 Q94.4956,329.202 94.4956,326.077 Q94.4956,322.952 95.8081,321.2958 Q97.1362,319.6395 99.6362,319.6395 Q100.3394,319.6395 100.98,319.7958 Q101.6362,319.952 102.1987,320.2489 L102.1987,322.9677 Q101.5737,322.3895 100.98,322.1239 Q100.3862,321.8427 99.7612,321.8427 Q98.4175,321.8427 97.73,322.9208 Q97.0425,323.9833 97.0425,326.077 Q97.0425,328.1708 97.73,329.2489 Q98.4175,330.3114 99.7612,330.3114 Q100.3862,330.3114 100.98,330.0458 Q101.5737,329.7645 102.1987,329.1864 L102.1987,331.9052 Z " fill="#000000"/><text fill="#D9B8FF" font-family="Helvetica" font-size="17" lengthAdjust="spacing" textLength="137" x="118.23" y="332.1498">aws_ec2_subnet</text></g><!--class aws_region--><g id="elem_aws_region"><rect codeLine="26" fill="#3D176E" height="39.7891" id="aws_region" rx="2.5" ry="2.5" style="stroke:#000D19;stroke-width:0.5;" width="137" x="58.23" y="7"/><ellipse cx="73.23" cy="26.8945" fill="#ADD1B2" rx="11" ry="11" style="stroke:#181818;stroke-width:1.0;"/><path d="M76.1987,32.5352 Q75.6206,32.832 74.98,32.9727 Q74.3394,33.1289 73.6362,33.1289 Q71.1362,33.1289 69.8081,31.4883 Q68.4956,29.832 68.4956,26.707 Q68.4956,23.582 69.8081,21.9258 Q71.1362,20.2695 73.6362,20.2695 Q74.3394,20.2695 74.98,20.4258 Q75.6362,20.582 76.1987,20.8789 L76.1987,23.5977 Q75.5737,23.0195 74.98,22.7539 Q74.3862,22.4727 73.7612,22.4727 Q72.4175,22.4727 71.73,23.5508 Q71.0425,24.6133 71.0425,26.707 Q71.0425,28.8008 71.73,29.8789 Q72.4175,30.9414 73.7612,30.9414 Q74.3862,30.9414 74.98,30.6758 Q75.5737,30.3945 76.1987,29.8164 L76.1987,32.5352 Z " fill="#000000"/><text fill="#D9B8FF" font-family="Helvetica" font-size="17" lengthAdjust="spacing" textLength="95" x="92.23" y="32.7798">aws_region</text></g><!--class aws_vpc--><g id="elem_aws_vpc"><rect codeLine="28" fill="#3D176E" height="39.7891" id="aws_vpc" rx="2.5" ry="2.5" style="stroke:#000D19;stroke-width:0.5;" width="112" x="179.73" y="106.79"/><ellipse cx="194.73" cy="126.6845" fill="#ADD1B2" rx="11" ry="11" style="stroke:#181818;stroke-width:1.0;"/><path d="M197.6988,132.3252 Q197.1206,132.622 196.48,132.7627 Q195.8394,132.9189 195.1363,132.9189 Q192.6363,132.9189 191.3081,131.2783 Q189.9956,129.622 189.9956,126.497 Q189.9956,123.372 191.3081,121.7158 Q192.6363,120.0595 195.1363,120.0595 Q195.8394,120.0595 196.48,120.2158 Q197.1363,120.372 197.6988,120.6689 L197.6988,123.3877 Q197.0738,122.8095 196.48,122.5439 Q195.8863,122.2627 195.2613,122.2627 Q193.9175,122.2627 193.23,123.3408 Q192.5425,124.4033 192.5425,126.497 Q192.5425,128.5908 193.23,129.6689 Q193.9175,130.7314 195.2613,130.7314 Q195.8863,130.7314 196.48,130.4658 Q197.0738,130.1845 197.6988,129.6064 L197.6988,132.3252 Z " fill="#000000"/><text fill="#D9B8FF" font-family="Helvetica" font-size="17" lengthAdjust="spacing" textLength="70" x="213.73" y="132.5698">aws_vpc</text></g><!--link aws_ec2_network_acl to aws_ec2_subnet--><g id="link_aws_ec2_network_acl_aws_ec2_subnet"><path codeLine="30" d="M173.73,246.8 C173.73,262.07 173.73,283.5 173.73,300.11 " fill="none" id="aws_ec2_network_acl-to-aws_ec2_subnet" style="stroke:#1A83AF;stroke-width:2.0;"/><polygon fill="#1A83AF" points="173.73,304.99,177.73,295.99,173.73,299.99,169.73,295.99,173.73,304.99" style="stroke:#1A83AF;stroke-width:2.0;"/></g><!--link aws_region to aws_ec2_network_acl--><g id="link_aws_region_aws_ec2_network_acl"><path codeLine="31" d="M131.33,47.2 C139.89,83.2 158.29,160.55 167.79,200.48 " fill="none" id="aws_region-to-aws_ec2_network_acl" style="stroke:#1A83AF;stroke-width:2.0;"/><polygon fill="#1A83AF" points="169.12,205.09,170.9318,195.4092,167.9645,200.2254,163.1483,197.2581,169.12,205.09" style="stroke:#1A83AF;stroke-width:2.0;"/></g><!--link aws_region to aws_ec2_subnet--><g id="link_aws_region_aws_ec2_subnet"><path codeLine="32" d="M108.67,47.16 C74.25,86.3 6,177.28 44.73,246.37 C59.42,272.56 86.73,291.1 112.46,303.59 " fill="none" id="aws_region-to-aws_ec2_subnet" style="stroke:#1A83AF;stroke-width:2.0;"/><polygon fill="#1A83AF" points="116.58,306.01,110.1364,298.5615,112.0549,303.8831,106.7333,305.8016,116.58,306.01" style="stroke:#1A83AF;stroke-width:2.0;"/></g><!--link aws_region to aws_vpc--><g id="link_aws_region_aws_vpc"><path codeLine="33" d="M148.27,47.22 C166.04,63.16 191.29,85.81 210.09,102.68 " fill="none" id="aws_region-to-aws_vpc" style="stroke:#1A83AF;stroke-width:2.0;"/><polygon fill="#1A83AF" points="213.24,105.41,209.2262,96.4161,209.5235,102.0652,203.8745,102.3625,213.24,105.41" style="stroke:#1A83AF;stroke-width:2.0;"/></g><!--link aws_vpc to aws_ec2_network_acl--><g id="link_aws_vpc_aws_ec2_network_acl"><path codeLine="34" d="M223.49,147.01 C213.63,162.54 199.74,184.46 189.14,201.19 " fill="none" id="aws_vpc-to-aws_ec2_network_acl" style="stroke:#1A83AF;stroke-width:2.0;"/><polygon fill="#1A83AF" points="185.96,205.2,194.1569,199.7401,188.637,200.977,187.4001,195.457,185.96,205.2" style="stroke:#1A83AF;stroke-width:2.0;"/></g><!--link aws_vpc to aws_ec2_subnet--><g id="link_aws_vpc_aws_ec2_subnet"><path codeLine="35" d="M260,146.99 C286.4,170.46 322.4,211.28 302.73,246.37 C288.05,272.56 260.74,291.1 235.01,303.59 " fill="none" id="aws_vpc-to-aws_ec2_subnet" style="stroke:#1A83AF;stroke-width:2.0;"/><polygon fill="#1A83AF" points="230.89,306.01,240.7367,305.8016,235.4151,303.8831,237.3336,298.5615,230.89,306.01" style="stroke:#1A83AF;stroke-width:2.0;"/></g><!--SRC=[ZP1FQy904CNl-HGBdeL4QTLB8HMalKYflPKYazrPNPBiXjcDmPP-z_gdbkt6gDVtVhptPjPA8CEoSbjMOfaXsSZcIbT0KBAKo3HJKnXYFIb13aUXEJFQNGNcK29xmcA3Jd48YRUruhb6Qzd0inw1voiojHR7U4UWxSv2xJngMe2rgNEaijgXDqPCih6K8Hc6zeOY6TrZ2pCaa7wHE8v5CWcHgrKNx_uZ5keJMU8_RMuSjcQsAWxKnPLxmXlPElJaTsvy0I6KNh4xJtizRYADz4zVh46OPazBAAnVOnqI6hUjSDgw2YTZ8KTduUSkcEy_nw2nI-I3fKRN6CgNm0ls5Nq7hgsp7H0OX2jbT21kAdvGpkNsttj9EXwciu_-Gn0TUO5dCI_dAdj3v6vcT9fxKrydU2px0G00]--></g></svg>

<svg xmlns="http://www.w3.org/2000/svg" width="329" height="352" preserveAspectRatio="none" style="width:329px;height:352px"><rect width="224" height="39.789" x="61.73" y="206.58" fill="#3D176E" rx="2.5" ry="2.5" style="stroke:#000d19;stroke-width:.5"/><circle cx="76.73" cy="226.475" r="11" fill="#ADD1B2" style="stroke:#181818;stroke-width:1"/><path d="M79.699 232.115q-.578.297-1.219.438-.64.156-1.344.156-2.5 0-3.828-1.64-1.312-1.657-1.312-4.782t1.312-4.781q1.328-1.656 3.828-1.656.703 0 1.344.156.656.156 1.219.453v2.719q-.625-.578-1.219-.844-.594-.281-1.219-.281-1.343 0-2.031 1.078-.688 1.062-.688 3.156 0 2.094.688 3.172.688 1.062 2.031 1.062.625 0 1.219-.265.594-.281 1.219-.86v2.72Z"/><text x="95.73" y="232.36" fill="#D9B8FF" font-family="Helvetica" font-size="17" textLength="182">aws_ec2_network_acl</text><rect width="179" height="39.789" x="84.23" y="306.37" fill="#3D176E" rx="2.5" ry="2.5" style="stroke:#000d19;stroke-width:.5"/><circle cx="99.23" cy="326.264" r="11" fill="#ADD1B2" style="stroke:#181818;stroke-width:1"/><path d="M102.199 331.905q-.578.297-1.219.438-.64.156-1.344.156-2.5 0-3.828-1.64-1.312-1.657-1.312-4.782t1.312-4.781q1.328-1.656 3.828-1.656.703 0 1.344.156.656.156 1.219.453v2.719q-.625-.579-1.219-.844-.594-.281-1.219-.281-1.343 0-2.031 1.078-.688 1.062-.688 3.156 0 2.094.688 3.172.688 1.062 2.031 1.062.625 0 1.219-.265.594-.281 1.219-.86v2.72Z"/><text x="118.23" y="332.15" fill="#D9B8FF" font-family="Helvetica" font-size="17" textLength="137">aws_ec2_subnet</text><rect width="137" height="39.789" x="58.23" y="7" fill="#3D176E" rx="2.5" ry="2.5" style="stroke:#000d19;stroke-width:.5"/><circle cx="73.23" cy="26.895" r="11" fill="#ADD1B2" style="stroke:#181818;stroke-width:1"/><path d="M76.199 32.535q-.578.297-1.219.438-.64.156-1.344.156-2.5 0-3.828-1.64-1.312-1.657-1.312-4.782t1.312-4.781q1.328-1.656 3.828-1.656.703 0 1.344.156.656.156 1.219.453v2.719q-.625-.578-1.219-.844-.594-.281-1.219-.281-1.343 0-2.031 1.078-.688 1.062-.688 3.156 0 2.094.688 3.172.688 1.062 2.031 1.062.625 0 1.219-.265.594-.281 1.219-.86v2.72Z"/><text x="92.23" y="32.78" fill="#D9B8FF" font-family="Helvetica" font-size="17" textLength="95">aws_region</text><rect width="112" height="39.789" x="179.73" y="106.79" fill="#3D176E" rx="2.5" ry="2.5" style="stroke:#000d19;stroke-width:.5"/><circle cx="194.73" cy="126.684" r="11" fill="#ADD1B2" style="stroke:#181818;stroke-width:1"/><path d="M197.699 132.325q-.578.297-1.219.438-.64.156-1.344.156-2.5 0-3.828-1.64-1.312-1.657-1.312-4.782t1.312-4.781q1.328-1.656 3.828-1.656.703 0 1.344.156.656.156 1.219.453v2.719q-.625-.579-1.219-.844-.594-.281-1.219-.281-1.344 0-2.031 1.078-.688 1.062-.688 3.156 0 2.094.688 3.172.688 1.062 2.031 1.062.625 0 1.219-.265.594-.281 1.219-.86v2.72Z"/><text x="213.73" y="132.57" fill="#D9B8FF" font-family="Helvetica" font-size="17" textLength="70">aws_vpc</text><path fill="none" d="M173.73 246.8v53.31" style="stroke:#1a83af;stroke-width:2"/><path fill="#1A83AF" d="m173.73 304.99 4-9-4 4-4-4 4 9z" style="stroke:#1a83af;stroke-width:2"/><path fill="none" d="M131.33 47.2c8.56 36 26.96 113.35 36.46 153.28" style="stroke:#1a83af;stroke-width:2"/><path fill="#1A83AF" d="m169.12 205.09 1.812-9.68-2.968 4.815-4.816-2.967 5.972 7.832z" style="stroke:#1a83af;stroke-width:2"/><path fill="none" d="M108.67 47.16C74.25 86.3 6 177.28 44.73 246.37c14.69 26.19 42 44.73 67.73 57.22" style="stroke:#1a83af;stroke-width:2"/><path fill="#1A83AF" d="m116.58 306.01-6.444-7.448 1.919 5.321-5.322 1.919 9.847.208z" style="stroke:#1a83af;stroke-width:2"/><path fill="none" d="M148.27 47.22c17.77 15.94 43.02 38.59 61.82 55.46" style="stroke:#1a83af;stroke-width:2"/><path fill="#1A83AF" d="m213.24 105.41-4.014-8.994.298 5.65-5.65.296 9.366 3.048z" style="stroke:#1a83af;stroke-width:2"/><path fill="none" d="M223.49 147.01c-9.86 15.53-23.75 37.45-34.35 54.18" style="stroke:#1a83af;stroke-width:2"/><path fill="#1A83AF" d="m185.96 205.2 8.197-5.46-5.52 1.237-1.237-5.52-1.44 9.743z" style="stroke:#1a83af;stroke-width:2"/><path fill="none" d="M260 146.99c26.4 23.47 62.4 64.29 42.73 99.38-14.68 26.19-41.99 44.73-67.72 57.22" style="stroke:#1a83af;stroke-width:2"/><path fill="#1A83AF" d="m230.89 306.01 9.847-.208-5.322-1.919 1.919-5.321-6.444 7.448z" style="stroke:#1a83af;stroke-width:2"/></svg>
